docs/.gitbook/assets/icon-shield-01-16@dark.svg

<svg width="32" height="32" viewBox="0 0 16 16" fill="none" xmlns="http://www.w3.org/2000/svg">
<rect x="0" y="0" width="16" height="16" fill="#181c1f"/>
<path fill-rule="evenodd" clip-rule="evenodd" d="M1.74952 3.75C1.00142 3.80344 1.00143 3.8035 1.00143 3.80357L1.00145 3.80373L1.00147 3.80411L1.00155 3.80518L1.00179 3.80846L1.00263 3.8196L1.00583 3.85971C1.00867 3.89421 1.01296 3.94403 1.01896 4.00787C1.03096 4.13551 1.0498 4.31933 1.07752 4.54878C1.13291 5.00728 1.22401 5.65009 1.36735 6.39223C1.67291 7.9743 2.22733 10.0703 3.21882 11.7893C4.209 13.5061 5.73407 15 7.99988 15C10.2657 15 11.7907 13.5061 12.7808 11.7893C13.7721 10.0703 14.3264 7.97425 14.6319 6.39218C14.7752 5.65004 14.8662 5.00723 14.9216 4.54873C14.9493 4.31928 14.9681 4.13546 14.9801 4.00782C14.9861 3.94398 14.9904 3.89416 14.9932 3.85966L14.9964 3.81955L14.9972 3.80841L14.9975 3.80513L14.9976 3.80406L14.9976 3.80367L14.9976 3.80352C14.9976 3.80345 14.9976 3.80338 14.2495 3.75L14.9976 3.80338C15.0175 3.52454 14.8807 3.25777 14.6426 3.11126L14.2495 3.75C14.6426 3.11126 14.6425 3.11117 14.6423 3.11108L14.6419 3.11085L14.641 3.11026L14.6381 3.10853L14.629 3.10295L14.5967 3.08357C14.5692 3.06713 14.5297 3.04379 14.479 3.01454C14.3777 2.95605 14.2317 2.8738 14.0478 2.77574C13.6806 2.57988 13.1596 2.31943 12.5406 2.05878C11.3177 1.54386 9.64684 1 7.99988 1C6.35293 1 4.68187 1.54386 3.45882 2.05876C2.83971 2.31941 2.31871 2.57986 1.95142 2.77571C1.76752 2.87377 1.62145 2.95602 1.52013 3.0145C1.46945 3.04376 1.42991 3.0671 1.40236 3.08354L1.37013 3.10291L1.36096 3.10849L1.35814 3.11022L1.35717 3.11081L1.3568 3.11104C1.35665 3.11113 1.35651 3.11122 1.74952 3.75ZM2.54259 4.16104C2.54965 4.22464 2.55765 4.29406 2.56669 4.36887C2.60299 4.66938 2.65584 5.05578 2.73045 5.5H7.24999L7.2499 2.54317C6.12535 2.66784 4.98233 3.04487 4.04085 3.44124C3.47233 3.68059 2.99317 3.92014 2.65721 4.09929C2.61687 4.1208 2.57863 4.14142 2.54259 4.16104ZM8.7499 2.54318L8.74999 5.5H13.2687C13.3433 5.0558 13.3961 4.66942 13.4324 4.36892C13.4414 4.29408 13.4494 4.22463 13.4565 4.16101C13.4205 4.14139 13.3822 4.12077 13.3419 4.09926C13.006 3.92012 12.5269 3.68057 11.9585 3.44122C11.0172 3.04487 9.87438 2.66785 8.7499 2.54318ZM12.9693 7H8.75L8.7499 13.4143C9.87523 13.1488 10.7647 12.2826 11.4814 11.0399C12.1863 9.81751 12.6591 8.33146 12.9693 7ZM7.2499 13.4143L7.25 7H3.02995C3.34031 8.33145 3.81313 9.81749 4.51818 11.0399C5.23496 12.2826 6.12452 13.1489 7.2499 13.4143ZM1.74952 3.75L1.35651 3.11122C1.11837 3.25773 0.981504 3.52455 1.00142 3.80344L1.74952 3.75Z" fill="#fff"/>
</svg>

<svg xmlns="http://www.w3.org/2000/svg" width="32" height="32" fill="none" viewBox="0 0 16 16"><path fill="#181c1f" d="M0 0h16v16H0z"/><path fill="#fff" fill-rule="evenodd" d="M1.75 3.75 1 3.804v.004l.002.012.003.04.013.148a27 27 0 0 0 .348 2.384c.306 1.582.86 3.678 1.852 5.397C4.209 13.506 5.734 15 7.999 15c2.267 0 3.792-1.494 4.782-3.21.991-1.72 1.545-3.816 1.85-5.398a27 27 0 0 0 .35-2.384l.012-.148.003-.04.001-.012v-.004l-.748-.054.749.053a.75.75 0 0 0-.355-.692l-.394.639.393-.639h-.001l-.003-.002-.009-.006-.032-.02-.118-.068q-.153-.09-.431-.24a19 19 0 0 0-1.507-.716C11.318 1.544 9.647 1 8 1s-3.318.544-4.541 1.059a19 19 0 0 0-1.939.955l-.118.07-.032.019-.009.005-.003.002-.001.001zm.793.411.024.208c.036.3.089.687.163 1.131h4.52V2.543c-1.125.125-2.268.502-3.21.898a17 17 0 0 0-1.497.72M8.75 2.543V5.5h4.519a25 25 0 0 0 .188-1.339l-.115-.062a17 17 0 0 0-1.383-.658c-.942-.396-2.085-.773-3.21-.898M12.97 7H8.75v6.414c1.125-.265 2.015-1.131 2.731-2.374.705-1.222 1.179-2.71 1.489-4.04m-5.72 6.414V7H3.03c.31 1.331.783 2.817 1.488 4.04.717 1.243 1.607 2.109 2.732 2.374M1.75 3.75l-.393-.639A.75.75 0 0 0 1 3.803z" clip-rule="evenodd"/></svg>
